udata_front/theme/gouvfr/templates/svg/logotype.svg

<svg fill="none" height="22" viewBox="0 0 131 22" width="131" xmlns="http://www.w3.org/2000/svg"><g fill="#373c42"><path d="m9.21406 16.5782h2.83384v-14.58543h-2.83384v5.21154c-1.02277-.95107-2.19512-1.42661-3.55882-1.42661-2.93988 0-5.32724 2.25891-5.32724 5.549 0 3.2302 2.51493 5.5295 5.39146 5.5295 1.42793 0 2.49338-.4759 3.4946-1.3879zm-2.98255-8.38279c1.78953 0 3.11013 1.24845 3.11013 3.09169 0 1.9223-1.36371 3.151-3.11013 3.151-1.76929 0-3.04765-1.3241-3.04765-3.1277 0-1.72445 1.1719-3.11015 3.04721-3.11015zm17.04939 8.38279h2.8338v-10.52336h-2.8338v1.14947c-1.0228-.95107-2.1951-1.42661-3.5588-1.42661-2.9404 0-5.3273 2.25891-5.3273 5.549 0 3.2302 2.5149 5.5295 5.3915 5.5295 1.4297 0 2.4942-.4759 3.4972-1.3879v1.1099zm-2.9826-8.38279c1.7891 0 3.1101 1.24845 3.1101 3.09169 0 1.9223-1.3637 3.151-3.1101 3.151-1.7693 0-3.0476-1.3241-3.0476-3.1277 0-1.72445 1.1719-3.11015 3.0472-3.11015zm9.0159-2.14057h-1.4486v2.25935h1.449v8.26401h2.8374v-8.26401h1.6848v-2.25935h-1.6804v-3.88435h-2.833v3.88435zm14.442 10.52336h2.8343v-10.52336h-2.8343v1.14947c-1.0223-.95107-2.1942-1.42661-3.5579-1.42661-2.9408 0-5.3273 2.25891-5.3273 5.549 0 3.2302 2.5145 5.5295 5.3911 5.5295 1.4279 0 2.4933-.4759 3.4945-1.3879v1.1099zm-2.9825-8.38279c1.7904 0 3.111 1.24845 3.111 3.09169 0 1.9223-1.3637 3.151-3.111 3.151-1.7685 0-3.0473-1.3241-3.0473-3.1277 0-1.72445 1.1719-3.11015 3.0473-3.11015zm10.2312 5.62809c-.8952 0-1.6408.6542-1.6408 1.5063 0 .8323.7456 1.5264 1.6408 1.5264.9164 0 1.6189-.6941 1.6189-1.5264s-.7241-1.5063-1.6189-1.5063zm15.6043-7.76866h-2.8343v1.14947c-1.0654-.93128-2.1731-1.42661-3.5799-1.42661-2.877 0-5.2877 2.14014-5.2877 5.3901 0 3.1511 2.3843 5.4109 5.4328 5.4109 1.4693 0 2.4899-.4562 3.4313-1.3083 0 .9907-.022 1.7042-.7038 2.2989-.5103.4355-1.3637.6907-2.4107.6907-1.1966 0-2.0456-.2772-2.6218-.9106h-3.1322c.7655 2.1995 2.745 3.3301 5.8596 3.3301 1.7244 0 3.0881-.3784 4.1087-1.1702 1.2977-1.0294 1.7244-2.3975 1.7244-4.4386v-9.01806zm-5.7759 2.14057c1.8753 0 3.0899 1.30784 3.0899 3.01199 0 1.7838-1.2999 2.9531-3.0472 2.9531-1.7685 0-3.1115-1.2286-3.1115-2.9729 0-1.62496 1.1935-2.99219 3.0683-2.99219zm13.9612-2.41771c-3.0899 0-5.8595 2.35789-5.8595 5.549 0 3.0916 2.5998 5.5295 5.8806 5.5295 3.452 0 5.9871-2.4977 5.9871-5.5493 0-3.11149-2.7054-5.52964-6.0082-5.52964zm.0427 2.4969c1.8537 0 3.111 1.26824 3.111 3.0521 0 1.8431-1.3637 3.0318-3.111 3.0318-1.8327 0-3.0472-1.2683-3.0472-3.0516 0-1.74426 1.2783-3.0323 3.0472-3.0323zm8.2605 2.5963c0 .8719-.0427 1.3672.1065 2.2193.4473 2.4573 2.1309 3.7458 4.8583 3.7458 1.5766 0 2.7485-.3959 3.6437-1.3285 1.1965-1.2282 1.3241-2.6548 1.3241-4.597v-4.85566h-2.833v5.60876c0 1.7834-.6158 2.7547-2.1291 2.7547-1.4913 0-2.1292-.9911-2.1292-2.8739v-5.49h-2.8329v4.817zm16.419 5.7073h1.8323l4.816-10.52336h-2.877l-2.855 6.20266-2.855-6.20266h-2.8989l4.8345 10.52336z"/><path d="m108.541 14.4926c.359 0 .66.1165.902.3493.25.2229.376.4986.376.827 0 .3256-.125.6042-.376.8359-.249.2258-.55.3387-.902.3387-.349 0-.649-.1129-.901-.3387-.241-.2347-.361-.5147-.361-.8403 0-.3255.122-.6012.365-.827.252-.2346.553-.3519.902-.3519zm11.889-8.17998-.225.76896h-1.829l-1.378 5.09232c-.61 2.245-1.224 3.9811-1.842 5.2085-.877 1.732-1.821 2.9283-2.832 3.5887-.768.505-1.536.7575-2.305.7575-.498 0-.923-.1399-1.275-.4196-.258-.1942-.387-.4467-.387-.7576 0-.2484.108-.4658.325-.6523.208-.1789.468-.2684.779-.2684.226 0 .418.066.576.198.153.1319.229.2836.229.4548 0 .1701-.088.3285-.264.4751-.132.1085-.198.1892-.198.242 0 .0704.029.1246.088.1627.076.0528.193.0792.352.0792.36 0 .74-.1056 1.139-.3167.393-.2112.744-.5264 1.051-.9458.311-.4135.603-1.0118.876-1.7948.117-.3255.431-1.4018.941-3.2289l2.177-7.88264h-2.178l.175-.76983c.693 0 1.176-.04253 1.452-.12758.276-.09384.527-.26497.752-.51336.235-.25691.536-.73054.902-1.42089.493-.9326.965-1.65551 1.417-2.16873.618-.69124 1.266-1.207832 1.942-1.549784.684-.34899 1.326-.523486 1.927-.523486.634 0 1.142.151327 1.527.453981.384.295322.576.617919.576.967789 0 .27157-.095.50061-.286.68713-.194.18564-.44.27846-.739.27846-.26 0-.473-.07039-.641-.21115-.158-.14077-.237-.30794-.237-.5015 0-.12317.054-.2742.163-.4531.108-.18769.162-.312328.162-.373915 0-.10851-.037-.189892-.113-.244147-.108-.078596-.267-.117894-.475-.117894-.526 0-.998.155433-1.416.466298-.56.412048-1.062 1.057238-1.505 1.935578-.226.4575-.639 1.59539-1.24 3.41366h1.838z"/><path d="m121.282 6.68567 4.323-.65282-1.804 5.66335c1.461-2.32272 2.789-3.94626 3.983-4.87064.677-.52847 1.228-.79271 1.655-.79271.275 0 .492.07772.651.23315.159.14752.238.36512.238.65282 0 .51263-.142 1.00195-.427 1.46796-.2.34957-.488.52436-.864.52436-.192 0-.359-.05821-.501-.17464-.134-.11672-.217-.29561-.251-.53668-.016-.14722-.054-.244-.112-.29034-.067-.06246-.146-.0937-.238-.0937-.142 0-.276.03109-.401.09326-.217.10851-.547.41058-.99.90621-.693.75956-1.445 1.74645-2.255 2.96055-.352.5132-.653 1.091-.902 1.7332-.352.8857-.553 1.418-.602 1.5969l-.401 1.4649h-1.918l2.319-7.23647c.266-.83875.4-1.43702.4-1.79481 0-.14077-.063-.25807-.189-.35192-.167-.12611-.389-.18916-.665-.18916-.176 0-.498.03373-.967.10118l-.088-.43111z"/></g></svg>

<svg role="img" aria-label="data.public.lu" width="131" height="22" class="logotype" viewBox="0 0 131 22" fill="none" xmlns="http://www.w3.org/2000/svg">
<path d="M9.21406 16.5782H12.0479V1.99277H9.21406V7.20431C8.19129 6.25324 7.01894 5.7777 5.65524 5.7777C2.71536 5.7777 0.328 8.03661 0.328 11.3267C0.328 14.5569 2.84293 16.8562 5.71946 16.8562C7.14739 16.8562 8.21284 16.3803 9.21406 15.4683V16.5782ZM6.23151 8.19541C8.02104 8.19541 9.34164 9.44386 9.34164 11.2871C9.34164 13.2094 7.97793 14.4381 6.23151 14.4381C4.46222 14.4381 3.18386 13.114 3.18386 11.3104C3.18386 9.58595 4.35576 8.20025 6.23107 8.20025L6.23151 8.19541ZM23.2809 16.5782H26.1147V6.05484H23.2809V7.20431C22.2581 6.25324 21.0858 5.7777 19.7221 5.7777C16.7817 5.7777 14.3948 8.03661 14.3948 11.3267C14.3948 14.5569 16.9097 16.8562 19.7863 16.8562C21.216 16.8562 22.2805 16.3803 23.2835 15.4683V16.5782H23.2809ZM20.2983 8.19541C22.0874 8.19541 23.4084 9.44386 23.4084 11.2871C23.4084 13.2094 22.0447 14.4381 20.2983 14.4381C18.529 14.4381 17.2507 13.114 17.2507 11.3104C17.2507 9.58595 18.4226 8.20025 20.2979 8.20025L20.2983 8.19541V8.19541ZM29.3142 6.05484H27.8656V8.31419H29.3146V16.5782H32.152V8.31419H33.8368V6.05484H32.1564V2.17049H29.3234V6.05484H29.3142V6.05484ZM43.7562 16.5782H46.5905V6.05484H43.7562V7.20431C42.7339 6.25324 41.562 5.7777 40.1983 5.7777C37.2575 5.7777 34.871 8.03661 34.871 11.3267C34.871 14.5569 37.3855 16.8562 40.2621 16.8562C41.69 16.8562 42.7554 16.3803 43.7566 15.4683V16.5782H43.7562ZM40.7737 8.19541C42.5641 8.19541 43.8847 9.44386 43.8847 11.2871C43.8847 13.2094 42.521 14.4381 40.7737 14.4381C39.0052 14.4381 37.7264 13.114 37.7264 11.3104C37.7264 9.58595 38.8983 8.20025 40.7737 8.20025V8.19541V8.19541ZM51.0049 13.8235C50.1097 13.8235 49.3641 14.4777 49.3641 15.3298C49.3641 16.1621 50.1097 16.8562 51.0049 16.8562C51.9213 16.8562 52.6238 16.1621 52.6238 15.3298C52.6238 14.4975 51.8997 13.8235 51.0049 13.8235V13.8235ZM66.6092 6.05484H63.7749V7.20431C62.7095 6.27303 61.6018 5.7777 60.195 5.7777C57.318 5.7777 54.9073 7.91784 54.9073 11.1678C54.9073 14.3189 57.2916 16.5787 60.3401 16.5787C61.8094 16.5787 62.83 16.1225 63.7714 15.2704C63.7714 16.2611 63.7494 16.9746 63.0676 17.5693C62.5573 18.0048 61.7039 18.26 60.6569 18.26C59.4603 18.26 58.6113 17.9828 58.0351 17.3494H54.9029C55.6684 19.5489 57.6479 20.6795 60.7625 20.6795C62.4869 20.6795 63.8506 20.3011 64.8712 19.5093C66.1689 18.4799 66.5956 17.1118 66.5956 15.0707V6.05264L66.6092 6.05484V6.05484ZM60.8333 8.19541C62.7086 8.19541 63.9232 9.50325 63.9232 11.2074C63.9232 12.9912 62.6233 14.1605 60.876 14.1605C59.1075 14.1605 57.7645 12.9319 57.7645 11.1876C57.7645 9.56264 58.958 8.19541 60.8328 8.19541H60.8333ZM74.7945 5.7777C71.7046 5.7777 68.935 8.13559 68.935 11.3267C68.935 14.4183 71.5348 16.8562 74.8156 16.8562C78.2676 16.8562 80.8027 14.3585 80.8027 11.3069C80.8027 8.19541 78.0973 5.77726 74.7945 5.77726V5.7777ZM74.8372 8.2746C76.6909 8.2746 77.9482 9.54284 77.9482 11.3267C77.9482 13.1698 76.5845 14.3585 74.8372 14.3585C73.0045 14.3585 71.79 13.0902 71.79 11.3069C71.79 9.56264 73.0683 8.2746 74.8372 8.2746V8.2746ZM83.0977 10.8709C83.0977 11.7428 83.055 12.2381 83.2042 13.0902C83.6515 15.5475 85.3351 16.836 88.0625 16.836C89.6391 16.836 90.811 16.4401 91.7062 15.5075C92.9027 14.2793 93.0303 12.8527 93.0303 10.9105V6.05484H90.1973V11.6636C90.1973 13.447 89.5815 14.4183 88.0682 14.4183C86.5769 14.4183 85.939 13.4272 85.939 11.5444V6.0544H83.1061V10.8714L83.0977 10.8709V10.8709ZM99.5167 16.5782H101.349L106.165 6.05484H103.288L100.433 12.2575L97.578 6.05484H94.6791L99.5136 16.5782H99.5167Z" fill="#373C42"/>
<path d="M108.541 14.4926C108.9 14.4926 109.201 14.6091 109.443 14.8419C109.693 15.0648 109.819 15.3405 109.819 15.6689C109.819 15.9945 109.694 16.2731 109.443 16.5048C109.194 16.7306 108.893 16.8435 108.541 16.8435C108.192 16.8435 107.892 16.7306 107.64 16.5048C107.399 16.2701 107.279 15.9901 107.279 15.6645C107.279 15.339 107.401 15.0633 107.644 14.8375C107.896 14.6029 108.197 14.4856 108.546 14.4856L108.541 14.4926ZM120.43 6.31262L120.205 7.08158H118.376L116.998 12.1739C116.388 14.4189 115.774 16.155 115.156 17.3824C114.279 19.1144 113.335 20.3107 112.324 20.9711C111.556 21.4761 110.788 21.7286 110.019 21.7286C109.521 21.7286 109.096 21.5887 108.744 21.309C108.486 21.1148 108.357 20.8623 108.357 20.5514C108.357 20.303 108.465 20.0856 108.682 19.8991C108.89 19.7202 109.15 19.6307 109.461 19.6307C109.687 19.6307 109.879 19.6967 110.037 19.8287C110.19 19.9606 110.266 20.1123 110.266 20.2835C110.266 20.4536 110.178 20.612 110.002 20.7586C109.87 20.8671 109.804 20.9478 109.804 21.0006C109.804 21.071 109.833 21.1252 109.892 21.1633C109.968 21.2161 110.085 21.2425 110.244 21.2425C110.604 21.2425 110.984 21.1369 111.383 20.9258C111.776 20.7146 112.127 20.3994 112.434 19.98C112.745 19.5665 113.037 18.9682 113.31 18.1852C113.427 17.8597 113.741 16.7834 114.251 14.9563L116.428 7.07366H114.25L114.425 6.30383C115.118 6.30383 115.601 6.2613 115.877 6.17625C116.153 6.08241 116.404 5.91128 116.629 5.66289C116.864 5.40598 117.165 4.93235 117.531 4.242C118.024 3.3094 118.496 2.58649 118.948 2.07327C119.566 1.38203 120.214 0.865438 120.89 0.523486C121.574 0.174496 122.216 0 122.817 0C123.451 0 123.959 0.151327 124.344 0.453981C124.728 0.749303 124.92 1.0719 124.92 1.42177C124.92 1.69334 124.825 1.92238 124.634 2.1089C124.44 2.29454 124.194 2.38736 123.895 2.38736C123.635 2.38736 123.422 2.31697 123.254 2.17621C123.096 2.03544 123.017 1.86827 123.017 1.67471C123.017 1.55154 123.071 1.40051 123.18 1.22161C123.288 1.03392 123.342 0.909282 123.342 0.847695C123.342 0.739185 123.305 0.657803 123.229 0.603548C123.121 0.524952 122.962 0.485654 122.754 0.485654C122.228 0.485654 121.756 0.641087 121.338 0.951952C120.778 1.364 120.276 2.00919 119.833 2.88753C119.607 3.34503 119.194 4.48292 118.593 6.30119H120.431L120.43 6.31262V6.31262Z" fill="#373C42"/>
<path d="M121.282 6.68567L125.605 6.03285L123.801 11.6962C125.262 9.37348 126.59 7.74994 127.784 6.82556C128.461 6.29709 129.012 6.03285 129.439 6.03285C129.714 6.03285 129.931 6.11057 130.09 6.266C130.249 6.41352 130.328 6.63112 130.328 6.91882C130.328 7.43145 130.186 7.92077 129.901 8.38678C129.701 8.73635 129.413 8.91114 129.037 8.91114C128.845 8.91114 128.678 8.85293 128.536 8.7365C128.402 8.61978 128.319 8.44089 128.285 8.19982C128.269 8.0526 128.231 7.95582 128.173 7.90948C128.106 7.84702 128.027 7.81578 127.935 7.81578C127.793 7.81578 127.659 7.84687 127.534 7.90904C127.317 8.01755 126.987 8.31962 126.544 8.81525C125.851 9.57481 125.099 10.5617 124.289 11.7758C123.937 12.289 123.636 12.8668 123.387 13.509C123.035 14.3947 122.834 14.927 122.785 15.1059L122.384 16.5708H120.466L122.785 9.33433C123.051 8.49558 123.185 7.89731 123.185 7.53952C123.185 7.39875 123.122 7.28145 122.996 7.1876C122.829 7.06149 122.607 6.99844 122.331 6.99844C122.155 6.99844 121.833 7.03217 121.364 7.09962L121.276 6.66851L121.282 6.68567V6.68567Z" fill="#373C42"/>
</svg>
